public/img/field-9.svg

<svg width="86" height="72" viewBox="0 0 86 72" fill="none" xmlns="http://www.w3.org/2000/svg">
<g clip-path="url(#clip0)">
<path d="M80.9245 40.7973V27.929C80.9245 22.8554 78.1102 18.2798 73.5801 15.9879C72.9644 15.6763 72.2121 15.9229 71.9004 16.539C71.5887 17.155 71.8354 17.907 72.4514 18.2187C76.1357 20.0827 78.4244 23.8034 78.4244 27.929V39.7087C77.507 39.4449 76.5396 39.3007 75.5386 39.3007H72.196V37.3954C74.2655 35.9327 75.6205 33.5234 75.6205 30.8022V26.9762C75.6205 26.2858 75.0607 25.7262 74.3705 25.7262H72.1041C71.3312 25.7262 70.6067 25.3962 70.0989 24.8387C70.4135 24.1322 70.5899 23.3512 70.5899 22.5292C70.5899 21.8388 70.0301 21.2792 69.3399 21.2792C68.6496 21.2792 68.0899 21.8388 68.0899 22.5292C68.0899 24.292 66.6558 25.7262 64.893 25.7262H60.7285C60.0382 25.7262 59.4785 26.2858 59.4785 26.9762V30.8022C59.4785 33.5112 60.8214 35.9108 62.875 37.3754V39.3007H59.0848C58.3866 38.6687 57.5705 38.1653 56.6745 37.8254V27.929C56.6745 23.8082 58.9594 20.0893 62.6376 18.2237C63.2534 17.9114 63.4994 17.1592 63.187 16.5434C62.8748 15.9277 62.1222 15.6817 61.5069 15.994C56.9841 18.2879 54.1746 22.8612 54.1746 27.9289V37.2802H45.2916V35.4313C47.842 33.7472 49.4754 30.716 49.4754 27.1072V23.7878C50.921 22.2848 51.8125 20.2452 51.8125 18V14.702L52.2289 15.1184C52.6978 15.5872 53.321 15.8454 53.9841 15.8454C54.6473 15.8454 55.2705 15.5873 55.7394 15.1184L61.1465 9.71129C63.3649 7.49292 63.3649 3.88329 61.1465 1.66492C59.2028 -0.278583 56.1917 -0.519208 53.9841 0.942167C51.776 -0.519208 48.7653 -0.278333 46.8218 1.66492C44.6034 3.88329 44.6034 7.49292 46.8218 9.71117L50.5308 13.4202H39.8106C35.2025 13.4202 31.4535 17.1692 31.4535 21.7774V27.8484C31.4535 31.0419 33.1249 33.8505 35.6372 35.4514V37.28H31.3441C26.1917 37.2802 22 41.472 22 46.6244V57.7487C22 61.1949 24.8038 63.9987 28.25 63.9987H79.75C83.1963 63.9987 86 61.1949 86 57.7487V49.7618C86 45.962 83.9631 42.6297 80.9245 40.7973ZM48.5896 7.94367C47.346 6.70004 47.346 4.67654 48.5896 3.43304C49.2114 2.81129 50.0281 2.50042 50.8449 2.50042C51.6618 2.50042 52.4785 2.81129 53.1003 3.43304C53.5885 3.92117 54.3797 3.92117 54.8681 3.43304C56.1115 2.18942 58.1351 2.18942 59.3787 3.43304C60.6224 4.67667 60.6224 6.70017 59.3787 7.94379L53.9842 13.3384L48.5896 7.94367ZM61.9786 30.8022V28.2262H64.8931C66.3022 28.2262 67.5925 27.7108 68.5881 26.86C69.5347 27.7247 70.7831 28.2262 72.1043 28.2262H73.1206V30.8022C73.1206 33.874 70.6215 36.3732 67.5496 36.3732C64.4777 36.3732 61.9786 33.8739 61.9786 30.8022ZM69.696 38.581V40.7637C69.696 41.9549 68.7267 42.9242 67.5355 42.9242C66.3442 42.9242 65.3751 41.9549 65.3751 40.7637V38.573C66.0675 38.767 66.7961 38.873 67.5496 38.873C68.2929 38.8732 69.0121 38.77 69.696 38.581ZM53.9841 39.8324C56.801 39.8324 59.0928 42.1242 59.0928 44.941C59.0928 47.7579 56.801 50.0497 53.9841 50.0497C51.1672 50.0497 48.8755 47.7579 48.8755 44.941C48.8755 42.1242 51.1672 39.8324 53.9841 39.8324ZM33.9535 21.7777C33.9535 18.548 36.5811 15.9204 39.8106 15.9204H49.3125V18.0002C49.3125 21.2298 46.6849 23.8574 43.4554 23.8574H33.9535V21.7777ZM33.9535 27.8487V26.3574H43.4554C44.7125 26.3574 45.9047 26.0767 46.9754 25.5773V27.1073C46.9754 31.3095 44.2373 34.3597 40.4645 34.3597C36.8743 34.3595 33.9535 31.4388 33.9535 27.8487ZM42.7916 36.5569V38.7538C42.7916 40.037 41.7476 41.081 40.4645 41.081C39.1814 41.081 38.1373 40.0369 38.1373 38.7538V36.5532C38.8801 36.7519 39.6599 36.8595 40.4645 36.8595C41.2751 36.8595 42.0541 36.7547 42.7916 36.5569ZM40.8557 61.4987H28.25C26.1823 61.4987 24.5 59.8164 24.5 57.7487V46.6244C24.5 42.8505 27.5702 39.7802 31.3441 39.7802H35.7481C36.22 41.9504 38.155 43.581 40.4645 43.581C42.774 43.581 44.7089 41.9503 45.1807 39.7802H48.3999C47.1445 41.1374 46.3755 42.9508 46.3755 44.941C46.3755 47.3114 47.4655 49.4317 49.17 50.8282C47.1332 51.6519 45.3737 53.0958 44.1656 54.9987H30.9841C30.2939 54.9987 29.7341 55.5584 29.7341 56.2487C29.7341 56.9389 30.2939 57.4987 30.9841 57.4987H40.8557V61.4987ZM45.0037 61.4987H43.3556V57.4987H45.0037C46.1065 57.4987 47.0037 58.3959 47.0037 59.4987C47.0037 60.6014 46.1066 61.4987 45.0037 61.4987ZM58.9349 61.4987H49.0334C49.3339 60.8958 49.5039 60.2168 49.5039 59.4987C49.5039 57.71 48.4548 56.162 46.9396 55.437C48.4737 53.6255 50.7397 52.5497 53.1701 52.5497H54.7984C57.2286 52.5497 59.4946 53.6254 61.0286 55.4369C59.5135 56.1619 58.4644 57.7099 58.4644 59.4986C58.4644 60.2169 58.6344 60.8958 58.9349 61.4987ZM64.6125 61.4987H62.9642C61.8615 61.4987 60.9642 60.6014 60.9642 59.4987C60.9642 58.3959 61.8615 57.4987 62.9642 57.4987H64.6125V61.4987ZM83.5 57.7487C83.5 59.8164 81.8177 61.4987 79.75 61.4987H67.1125V57.4987H76.9841C77.6744 57.4987 78.2341 56.9389 78.2341 56.2487C78.2341 55.5584 77.6744 54.9987 76.9841 54.9987H63.8025C62.5944 53.0958 60.835 51.6519 58.7982 50.828C60.5029 49.4315 61.5928 47.3114 61.5928 44.941C61.5928 43.8214 61.3478 42.7587 60.9116 41.8005H62.9929C63.4656 43.8728 65.3223 45.4242 67.5355 45.4242C69.7489 45.4242 71.6055 43.8727 72.0783 41.8005H75.5386C79.9285 41.8005 83.4999 45.3719 83.4999 49.7618V57.7487H83.5Z" fill="#472880"/>
<path d="M67.543 17.0474C67.8717 17.0474 68.1942 16.9137 68.4267 16.6812C68.6591 16.4487 68.793 16.1262 68.793 15.7974C68.793 15.4674 68.6592 15.1462 68.4267 14.9137C68.1942 14.6812 67.8717 14.5474 67.543 14.5474C67.2142 14.5474 66.8917 14.6812 66.6592 14.9137C66.4268 15.1462 66.293 15.4674 66.293 15.7974C66.293 16.1262 66.4267 16.4487 66.6592 16.6812C66.8917 16.9137 67.2142 17.0474 67.543 17.0474Z" fill="#472880"/>
</g>
<path d="M64 63.1551L63.9645 63.125L64 63.0849L63.0984 62.3221L56.7921 56.5215C56.7921 56.5215 56.6807 56.6369 56.4983 56.8075L56.3311 56.9882C54.8926 58.3179 50.2832 62.1666 44.8735 62.2419C44.757 62.2419 44.6404 62.2419 44.5239 62.2419C41.6772 61.9358 38.9015 60.4204 36.0852 57.6154C31.4099 52.9388 26.2078 50.4148 20.6107 50.0786C20.4537 50.0786 20.2966 50.0786 20.1447 50.0786C19.3027 50.0046 18.4568 49.9828 17.612 50.0133C9.18338 50.3546 2.92268 55.9545 0.795251 58.1122C0.339375 58.5186 0.0658488 58.8096 0.00506529 58.8598L0.0354571 58.8899C0.0262093 58.9068 0.0142314 58.9221 0 58.9351L0.901623 59.6878L7.20792 65.4934L7.5017 65.2024L7.66886 65.0217C9.10233 63.687 13.7168 59.8383 19.1266 59.7681C19.2431 59.7681 19.3545 59.7681 19.471 59.7681C22.3228 60.0741 25.0935 61.5895 27.9098 64.3945C32.5901 69.0511 37.782 71.5751 43.3792 71.9213C43.5311 71.9213 43.6882 71.9213 43.8452 71.9213C44.6872 71.9955 45.5331 72.0172 46.3778 71.9865C54.8065 71.6453 61.0672 66.0504 63.1946 63.8927C63.6353 63.4712 63.9139 63.1852 63.9696 63.125" fill="#EFC825"/>
<defs>
<clipPath id="clip0">
<rect x="22" width="64" height="64" fill="white"/>
</clipPath>
</defs>
</svg>

<svg width="86" height="72" fill="none" xmlns="http://www.w3.org/2000/svg"><g clip-path="url(#clip0)" fill="#472880"><path d="M80.924 40.797V27.93a13.32 13.32 0 00-7.344-11.941 1.25 1.25 0 00-1.129 2.23 10.832 10.832 0 015.973 9.711v11.78a10.425 10.425 0 00-2.885-.408h-3.343v-1.906a8.065 8.065 0 003.425-6.593v-3.826c0-.69-.56-1.25-1.25-1.25h-2.267c-.773 0-1.497-.33-2.005-.887a5.663 5.663 0 00.49-2.31 1.25 1.25 0 00-2.5 0 3.2 3.2 0 01-3.196 3.197h-4.165c-.69 0-1.25.56-1.25 1.25v3.826a8.064 8.064 0 003.397 6.573v1.926h-3.79a7.62 7.62 0 00-2.41-1.476V27.93c0-4.12 2.284-7.84 5.963-9.705a1.25 1.25 0 10-1.131-2.23 13.322 13.322 0 00-7.332 11.935v9.351h-8.883v-1.849c2.55-1.684 4.183-4.715 4.183-8.324v-3.32A8.326 8.326 0 0051.812 18v-3.298l.417.416a2.466 2.466 0 001.755.727c.663 0 1.286-.258 1.755-.727l5.408-5.407a5.696 5.696 0 000-8.046 5.7 5.7 0 00-7.163-.723 5.7 5.7 0 00-7.162.723 5.696 5.696 0 000 8.046l3.709 3.71H39.81c-4.608 0-8.358 3.748-8.358 8.356v6.071a9.01 9.01 0 004.184 7.603v1.829h-4.293c-5.152 0-9.344 4.192-9.344 9.344V57.75a6.257 6.257 0 006.25 6.25h51.5a6.257 6.257 0 006.25-6.25v-7.987c0-3.8-2.037-7.132-5.076-8.965zM48.59 7.944a3.193 3.193 0 010-4.511 3.18 3.18 0 012.255-.933c.817 0 1.633.311 2.255.933a1.25 1.25 0 001.768 0 3.193 3.193 0 014.51 0 3.193 3.193 0 010 4.51l-5.394 5.395-5.394-5.394zm13.389 22.858v-2.576h2.914c1.41 0 2.7-.515 3.695-1.366a5.214 5.214 0 003.516 1.366h1.017v2.576c0 3.072-2.5 5.571-5.571 5.571a5.577 5.577 0 01-5.571-5.57zm7.717 7.779v2.183c0 1.19-.97 2.16-2.16 2.16-1.192 0-2.16-.97-2.16-2.16v-2.191a8.046 8.046 0 004.32.008zm-15.712 1.251a5.115 5.115 0 015.109 5.109 5.115 5.115 0 01-5.109 5.109 5.114 5.114 0 01-5.108-5.109 5.114 5.114 0 015.108-5.109zm-20.03-18.054a5.864 5.864 0 015.857-5.858h9.502V18a5.864 5.864 0 01-5.858 5.857h-9.502v-2.08zm0 6.07v-1.49h9.501c1.258 0 2.45-.281 3.52-.78v1.53c0 4.201-2.738 7.252-6.51 7.252a6.519 6.519 0 01-6.512-6.511zm8.838 8.709v2.197a2.33 2.33 0 01-2.328 2.327 2.33 2.33 0 01-2.327-2.327v-2.2a8.993 8.993 0 002.328.305c.81 0 1.59-.104 2.327-.302zm-1.936 24.942H28.25a3.754 3.754 0 01-3.75-3.75V46.624a6.852 6.852 0 016.844-6.844h4.404a4.835 4.835 0 004.717 3.801 4.834 4.834 0 004.716-3.8H48.4a7.597 7.597 0 00.77 11.048 10.659 10.659 0 00-5.004 4.17H30.984a1.25 1.25 0 000 2.5h9.872v4zm4.148 0h-1.648v-4h1.648c1.102 0 2 .897 2 2 0 1.102-.897 2-2 2zm13.93 0h-9.9c.3-.603.47-1.282.47-2a4.505 4.505 0 00-2.564-4.062 8.158 8.158 0 016.23-2.887h1.628a8.158 8.158 0 016.23 2.887 4.505 4.505 0 00-2.564 4.062c0 .718.17 1.397.47 2zm5.678 0h-1.648c-1.102 0-2-.898-2-2 0-1.103.898-2 2-2h1.648v4zm18.888-3.75a3.754 3.754 0 01-3.75 3.75H67.112v-4h9.872a1.25 1.25 0 000-2.5H63.803a10.66 10.66 0 00-5.005-4.171 7.596 7.596 0 002.114-9.028h2.08a4.667 4.667 0 004.544 3.624 4.668 4.668 0 004.542-3.623h3.46c4.39 0 7.962 3.57 7.962 7.96v7.988z"/><path d="M67.543 17.047c.329 0 .651-.133.884-.366a1.26 1.26 0 00.366-.884c0-.33-.134-.65-.366-.883a1.26 1.26 0 00-.884-.367 1.26 1.26 0 00-.884.367 1.258 1.258 0 00-.366.883c0 .33.134.652.366.884.233.233.555.366.884.366z"/></g><path d="M64 63.155l-.035-.03.035-.04-.902-.763-6.306-5.8s-.111.115-.294.285l-.167.181c-1.438 1.33-6.048 5.179-11.458 5.254h-.35c-2.846-.306-5.622-1.822-8.438-4.627-4.675-4.676-9.877-7.2-15.474-7.536h-.466a20.487 20.487 0 00-2.533-.066c-8.429.342-14.69 5.942-16.817 8.1-.456.406-.73.697-.79.747l.03.03a.175.175 0 01-.035.045l.902.753 6.306 5.805.294-.29.167-.181c1.433-1.335 6.048-5.184 11.458-5.254h.344c2.852.306 5.622 1.822 8.439 4.626 4.68 4.657 9.872 7.181 15.47 7.527h.465c.842.075 1.688.096 2.533.066 8.428-.342 14.69-5.937 16.817-8.094.44-.422.719-.708.775-.768" fill="#EFC825"/><defs><clipPath id="clip0"><path fill="#fff" d="M22 0h64v64H22z"/></clipPath></defs></svg>
